build/images/g21.svg

<svg width="138" height="138" viewBox="0 0 138 138" fill="none" xmlns="http://www.w3.org/2000/svg">
<circle cx="69" cy="69" r="69" fill="#76BD5E"/>
<path d="M74.8125 88.1876L80.125 71.3126L84.5 72.5626L79.1875 89.4376L74.8125 88.1876ZM81.0625 47.2501C83.875 47.2501 86.375 44.7501 86.375 41.9376C86.375 39.1251 84.1875 36.6251 81.0625 36.6251C78.25 36.6251 75.75 39.1251 75.75 41.9376C75.75 44.7501 78.25 47.2501 81.0625 47.2501ZM93.5625 92.8751C91.6875 93.8126 89.8125 94.7501 87.625 95.0626C85.4375 95.3751 83.25 95.3751 81.0625 94.7501L61.375 88.8126L68.875 67.5626L61.0625 58.1876L70.125 53.1876C70.125 53.1876 73.5625 62.2501 73.875 63.1876C74.1875 64.1251 74.8125 64.7501 75.75 65.0626L88.5625 68.8126L90.125 63.1876L87.3125 61.9376L89.1875 55.3751L84.8125 54.1251L83.25 60.3751L79.5 58.8126L75.125 46.6251C73.875 44.1251 70.75 42.8751 67.9375 44.1251L53.5625 51.9376C50.75 53.5001 49.8125 56.9376 51.375 59.4376C51.6875 60.0626 60.75 69.4376 60.75 69.4376L55.4375 87.2501L34.1875 81.0001L33.25 85.0626L79.8125 98.8126C85.125 100.375 90.75 99.7501 95.75 96.9376L93.5625 92.8751Z" fill="white"/>
</svg>

<svg width="138" height="138" fill="none" xmlns="http://www.w3.org/2000/svg"><circle cx="69" cy="69" r="69" fill="#76BD5E"/><path d="M74.813 88.188l5.312-16.875 4.375 1.25-5.313 16.875-4.374-1.25zm6.25-40.938c2.812 0 5.312-2.5 5.312-5.312 0-2.813-2.188-5.313-5.313-5.313-2.812 0-5.312 2.5-5.312 5.313 0 2.812 2.5 5.312 5.313 5.312zm12.5 45.625c-1.876.938-3.75 1.875-5.938 2.188-2.188.312-4.375.312-6.563-.313l-19.687-5.937 7.5-21.25-7.813-9.375 9.063-5s3.438 9.062 3.75 10c.313.937.938 1.562 1.875 1.875l12.813 3.75 1.562-5.625-2.813-1.25 1.876-6.563-4.376-1.25-1.562 6.25-3.75-1.562-4.375-12.188c-1.25-2.5-4.375-3.75-7.188-2.5l-14.374 7.813c-2.813 1.562-3.75 5-2.188 7.5.313.625 9.375 10 9.375 10L55.437 87.25 34.188 81l-.937 4.063 46.563 13.75c5.312 1.562 10.937.937 15.937-1.875l-2.188-4.063z" fill="#fff"/></svg>
